X:35
T: Vanishing Leprechaun
S: "ITM Session Tunes vol 3" ("Sully")
Z: B.Black
M: 6/8
L: 1/8
R: jig
K: G
B3 BAG|F2d d^cd|B2g gfg|eag fed|
B3 BAG|F2d d^cd|ede fef|a3 g3 :|
gfg b2d|gfg b2d|fag fed|fag fed|
gfg b2d|gfg b2d|eag fef|a3 g3 :|
